<?xml version="1.0" encoding="UTF-8"?>
<map version="1.10" tiledversion="1.12.2" orientation="orthogonal" renderorder="right-down" width="32" height="32" tilewidth="16" tileheight="16" infinite="0" nextlayerid="2" nextobjectid="1">
 <tileset firstgid="1" source="tileset.tsx"/>
 <layer id="1" name="Tile Layer 1" width="32" height="32">
  <data encoding="csv">
11,11,11,11,11,11,11,11,11,11,11,11,11,11,11,11,11,11,11,11,11,11,11,11,11,11,11,11,11,11,11,11,
11,11,11,11,11,11,11,11,11,11,11,11,11,11,11,11,11,11,11,11,11,11,11,11,11,11,11,11,11,11,11,11,
11,11,11,11,11,11,11,11,11,11,11,11,10,10,11,11,11,11,11,11,11,11,11,11,11,11,11,11,11,11,11,11,
11,11,11,11,11,11,11,11,11,11,11,10,10,10,10,10,10,10,10,11,11,11,11,11,11,11,11,11,11,11,11,11,
11,11,11,11,11,11,11,11,10,10,10,10,9,9,9,9,9,9,10,10,11,11,11,11,11,11,11,11,11,11,11,11,
11,11,11,11,11,11,11,11,10,10,10,9,9,9,9,9,9,9,9,10,10,11,11,11,11,11,11,11,11,11,11,11,
11,11,11,11,11,11,11,10,10,10,9,9,6,6,6,6,6,9,9,6,10,10,10,11,11,11,11,11,11,11,11,11,
11,11,11,11,11,11,10,10,6,6,6,6,6,6,6,6,6,6,6,6,6,6,10,10,10,11,11,11,11,11,11,11,
11,11,11,11,11,10,10,10,6,6,6,6,6,6,6,6,6,6,6,6,6,6,6,10,10,10,11,11,11,11,11,11,
11,11,11,11,10,10,10,6,6,6,6,6,6,6,6,6,6,6,6,6,6,6,6,6,6,10,10,11,11,11,11,11,
11,11,11,11,10,10,10,6,6,6,6,80,80,80,80,76,80,80,80,80,76,80,80,6,6,6,10,10,11,11,11,11,
11,11,11,10,10,10,9,9,6,6,6,80,192,69,146,166,148,69,80,69,69,174,80,6,6,6,6,10,10,11,11,11,
11,11,11,10,10,10,9,9,9,6,6,80,69,69,69,69,69,69,185,69,69,69,80,6,6,6,6,9,10,11,11,11,
11,11,11,11,10,10,9,9,9,6,6,76,69,69,69,69,69,69,80,175,69,69,76,6,6,6,9,9,10,11,11,11,
11,11,11,11,10,10,10,6,6,6,6,80,167,69,69,69,80,189,80,69,69,69,80,6,6,6,9,9,10,11,11,11,
11,11,11,11,11,10,10,6,6,6,6,80,167,69,69,69,80,144,80,172,173,176,80,6,6,6,9,9,10,10,11,11,
11,11,11,11,11,11,10,10,6,6,6,80,80,185,80,76,80,80,80,80,80,80,80,6,6,6,9,9,10,10,11,11,
11,11,11,11,11,11,11,10,6,6,6,6,6,33,6,6,6,6,6,6,6,6,6,6,6,6,9,9,9,10,11,11,
11,11,11,11,11,11,10,10,6,6,6,6,6,33,6,46,46,6,46,46,6,46,46,6,6,6,9,9,9,9,11,11,
11,11,11,11,11,10,10,10,6,6,6,6,6,33,6,46,46,6,46,46,6,46,46,6,6,6,6,9,9,9,11,11,
11,11,11,11,10,10,10,10,6,6,6,6,6,33,6,46,46,6,46,46,6,46,46,6,6,6,6,6,9,9,11,11,
11,11,11,11,10,10,10,9,9,6,6,6,6,33,6,46,46,6,46,46,6,46,46,6,6,6,6,6,10,10,11,11,
11,11,11,10,10,10,10,9,9,9,9,6,6,33,6,46,46,6,46,46,6,46,46,6,6,6,6,6,10,10,11,11,
11,11,11,10,10,10,9,9,9,9,9,6,6,33,6,6,6,6,6,6,6,6,6,6,6,6,9,9,10,10,11,11,
11,11,11,10,10,10,9,9,9,9,9,6,6,35,34,34,34,34,34,34,34,34,34,34,34,34,34,34,34,34,34,34,
11,11,11,10,10,10,10,9,9,9,9,6,6,6,6,6,6,6,6,6,6,6,6,9,9,9,9,10,10,10,11,11,
11,11,11,11,10,10,10,10,9,9,9,6,6,6,6,6,6,6,6,6,6,6,9,9,9,9,10,10,11,11,11,11,
11,11,11,11,11,10,10,10,10,10,6,6,6,6,6,6,6,6,6,6,6,9,9,9,10,10,10,11,11,11,11,11,
11,11,11,11,11,11,11,10,10,10,10,6,6,6,6,6,6,6,6,9,9,9,9,9,10,11,11,11,11,11,11,11,
11,11,11,11,11,11,11,11,10,10,10,10,10,10,10,10,10,10,10,9,10,10,10,10,10,11,11,11,11,11,11,11,
11,11,11,11,11,11,11,11,11,11,11,10,10,10,10,10,10,10,10,10,10,11,11,11,11,11,11,11,11,11,11,11,
11,11,11,11,11,11,11,11,11,11,11,11,11,11,11,11,11,11,11,11,11,11,11,11,11,11,11,11,11,11,11,11
</data>
 </layer>
</map>
