<?xml version="1.0" encoding="UTF-8"?>
<map version="1.10" tiledversion="1.12.2" orientation="orthogonal" renderorder="right-down" width="15" height="24" tilewidth="16" tileheight="16" infinite="0" nextlayerid="2" nextobjectid="1">
 <properties>
  <property name="exit_to_world" type="bool" value="true"/>
 </properties>
 <tileset firstgid="1" source="tileset.tsx"/>
 <layer id="1" name="Tile Layer 1" width="15" height="24">
  <data encoding="csv">
6,6,6,6,6,6,6,6,6,6,6,6,6,6,6,
6,80,80,80,80,80,154,154,154,80,80,80,80,80,6,
6,80,69,69,69,69,69,69,69,69,69,69,69,80,6,
6,80,69,217,69,69,69,69,69,69,69,217,69,80,6,
6,80,69,69,69,69,69,69,69,69,69,69,69,80,6,
6,80,69,69,69,80,80,75,80,80,69,69,69,80,6,
6,154,69,69,69,80,178,69,177,80,69,69,69,154,6,
6,154,69,69,69,75,69,43,69,75,69,69,69,154,6,
6,154,69,69,69,80,178,69,177,80,69,69,69,154,6,
6,80,69,69,69,80,80,154,80,80,69,69,69,80,6,
6,80,69,69,69,69,69,69,69,69,69,69,69,80,6,
6,80,69,217,69,95,69,69,69,96,69,217,69,80,6,
6,80,69,69,69,69,69,69,69,69,69,69,69,80,6,
6,80,80,80,80,95,69,69,69,96,80,80,80,80,6,
6,6,6,6,6,6,69,69,69,6,6,6,6,6,6,
6,6,6,6,226,237,69,69,69,237,227,6,6,6,6,
6,6,6,6,225,6,69,69,69,6,225,6,6,6,6,
6,6,6,6,6,6,69,69,69,6,6,6,6,6,6,
6,6,6,6,226,237,69,69,69,237,227,6,6,6,6,
6,6,6,6,225,6,69,69,69,6,225,6,6,6,6,
6,6,6,6,6,6,69,69,69,6,6,6,6,6,6,
6,6,6,6,226,237,69,69,69,237,227,6,6,6,6,
6,6,6,6,225,6,69,69,69,6,225,6,6,6,6,
6,6,6,6,6,6,69,69,69,6,6,6,6,6,6
</data>
 </layer>
</map>
