<?xml version="1.0" encoding="UTF-8"?>
<map version="1.10" tiledversion="1.12.2" orientation="orthogonal" renderorder="right-down" width="48" height="48" tilewidth="16" tileheight="16" infinite="0" nextlayerid="2" nextobjectid="1">
 <tileset firstgid="1" source="tileset.tsx"/>
 <layer id="1" name="Tile Layer 1" width="48" height="48">
  <data encoding="csv">
6,6,6,6,6,6,6,6,6,6,6,6,6,6,6,6,6,6,6,6,6,6,6,6,6,6,6,6,6,6,6,6,6,6,6,6,6,6,6,6,6,6,6,6,6,6,6,6,
6,6,6,6,6,6,6,6,6,6,6,6,6,6,6,6,6,6,6,6,6,6,6,6,6,6,6,6,6,6,6,6,6,6,6,6,6,6,6,6,6,6,6,6,6,6,6,6,
6,6,6,6,6,6,6,6,6,6,6,6,6,6,6,6,6,6,6,6,6,6,6,6,6,6,6,6,6,6,6,6,6,6,6,6,6,6,6,6,6,6,6,6,6,6,6,6,
6,6,6,6,6,6,6,6,6,6,6,6,6,6,6,6,6,6,6,6,6,6,6,6,6,6,6,6,6,6,6,6,6,6,6,6,80,80,80,76,80,80,80,80,80,6,6,6,
6,6,6,6,6,6,6,6,6,6,6,6,6,6,6,6,6,6,6,6,6,6,6,6,6,6,6,6,6,6,6,6,6,6,6,6,80,147,69,170,167,80,174,158,80,6,6,6,
6,6,6,6,6,6,6,6,6,6,6,6,6,6,6,6,6,6,6,6,6,6,6,6,6,6,6,6,6,6,6,6,6,6,6,6,76,166,69,69,69,185,69,69,80,6,6,6,
6,6,6,6,6,203,203,203,203,203,203,203,203,203,203,203,203,6,6,6,6,6,6,6,6,6,6,6,6,6,6,6,6,6,6,6,80,145,69,69,192,80,172,173,80,6,6,6,
6,6,6,6,6,204,46,46,46,46,46,46,46,46,46,46,204,6,6,6,6,6,6,6,6,6,6,6,6,6,6,6,6,6,6,6,80,80,185,80,80,80,80,80,80,6,6,6,
6,6,6,6,6,204,46,46,46,46,46,46,46,46,46,46,204,6,6,6,6,6,6,6,6,6,6,6,6,6,6,6,6,6,6,6,6,6,33,6,6,6,6,6,6,6,6,6,
6,6,6,6,6,204,46,46,46,46,46,46,46,46,46,46,204,6,6,6,6,6,6,6,6,6,6,6,6,6,6,6,6,6,6,6,6,6,33,6,6,6,6,6,6,6,6,6,
6,6,6,6,6,204,46,46,46,46,46,46,46,46,46,46,204,6,6,6,6,6,6,6,6,6,6,6,6,6,6,6,6,6,6,6,6,6,33,6,6,6,6,6,6,6,6,6,
6,6,6,6,6,204,46,46,46,46,46,46,46,46,46,46,6,6,6,6,6,6,6,6,6,6,6,6,6,6,6,6,6,6,6,6,6,6,33,6,6,6,6,6,6,6,6,6,
6,6,6,6,6,204,46,46,46,46,46,46,46,46,46,46,6,34,34,34,34,34,34,34,34,34,39,34,34,34,34,34,34,34,34,34,34,34,38,6,6,6,6,6,6,6,6,6,
6,6,6,6,6,204,46,46,46,46,46,46,46,46,46,46,6,6,6,6,6,6,6,6,6,6,33,6,6,6,6,6,6,6,6,6,6,6,6,6,6,6,6,6,6,6,6,6,
6,6,6,6,6,204,46,46,46,46,46,46,46,46,46,46,204,6,6,6,6,6,6,6,6,6,33,6,6,6,6,6,6,6,6,6,6,6,6,6,6,6,6,6,6,6,6,6,
6,6,6,6,6,204,46,46,46,46,46,46,46,46,46,46,204,6,6,6,6,6,6,6,6,6,33,6,6,6,6,6,6,6,6,6,6,6,6,6,6,6,6,6,6,6,6,6,
6,6,6,6,6,204,46,46,46,46,46,46,46,46,46,46,204,6,6,6,6,6,6,6,6,6,33,6,6,6,6,6,6,6,6,6,6,6,6,6,6,6,6,6,6,6,6,6,
6,6,6,6,6,204,46,46,46,46,46,46,46,46,46,46,204,6,6,6,6,6,6,6,6,6,33,6,6,6,6,6,6,6,6,6,203,203,203,203,203,203,203,203,203,203,203,6,
6,6,6,6,6,203,203,203,203,203,203,203,203,203,203,203,203,6,6,6,6,6,6,6,6,6,33,6,6,6,6,6,6,6,6,6,204,46,46,46,46,46,46,46,46,46,204,6,
6,6,6,6,6,6,6,6,6,6,6,6,6,6,6,6,6,6,6,6,6,6,6,6,6,6,33,6,6,6,6,6,6,6,6,6,204,46,46,46,46,46,46,46,46,46,204,6,
6,6,6,6,6,6,6,6,6,6,6,6,6,6,6,6,6,6,6,6,6,6,6,6,6,6,33,6,6,6,6,6,6,6,6,6,204,46,46,46,46,46,46,46,46,46,204,6,
6,6,6,6,6,6,6,6,6,6,6,6,6,6,6,6,6,6,6,6,6,6,6,6,6,6,33,6,6,6,6,6,6,6,6,6,204,46,46,46,46,46,46,46,46,46,204,6,
6,6,6,6,6,6,6,6,6,6,6,6,6,6,6,6,6,6,6,6,6,6,6,6,6,6,33,6,6,6,6,6,6,6,6,6,204,46,46,46,46,46,46,46,46,46,204,6,
6,6,6,6,6,6,6,6,6,6,6,6,6,6,6,6,6,6,6,6,6,6,6,6,6,6,33,6,6,6,6,6,6,6,6,6,204,46,46,46,46,46,46,46,46,46,204,6,
6,6,6,6,6,6,6,6,6,6,6,6,6,6,6,6,6,6,6,6,6,6,6,6,6,6,33,6,6,6,6,6,6,6,6,6,204,46,46,46,46,46,46,46,46,46,204,6,
6,6,6,6,6,6,6,6,6,6,6,6,6,6,6,6,6,6,6,6,6,6,6,6,6,6,33,6,6,6,6,6,6,6,6,6,204,46,46,46,46,46,46,46,46,46,204,6,
6,6,6,6,6,6,6,6,6,6,6,6,6,6,6,6,6,6,6,6,6,6,6,6,6,6,33,6,6,6,6,6,6,6,6,6,203,203,203,203,6,6,6,203,203,203,203,6,
6,6,80,80,80,80,80,80,80,80,80,76,80,80,80,6,6,6,6,6,6,6,6,6,6,6,33,6,6,6,6,6,6,6,6,6,6,6,6,6,6,33,6,6,6,6,6,6,
6,6,80,172,173,69,80,144,189,69,69,69,147,167,76,6,6,6,6,6,6,6,6,6,6,6,33,6,6,6,6,6,6,6,6,6,6,6,6,6,6,33,6,6,6,6,6,6,
6,6,80,175,69,69,80,80,80,69,69,146,166,148,80,6,6,6,6,6,6,6,6,6,6,6,33,6,6,6,6,6,6,6,6,6,6,6,6,6,6,33,6,6,6,6,6,6,
6,6,80,172,173,69,80,168,80,192,69,69,145,69,185,34,34,34,34,34,34,34,34,34,34,34,39,34,34,34,34,34,34,34,34,34,39,34,34,34,34,38,6,6,6,6,6,6,
6,6,80,175,69,69,80,185,80,69,69,69,69,69,80,6,6,6,6,6,6,6,6,6,6,6,33,6,6,6,6,6,6,6,6,6,33,6,6,6,6,6,6,6,6,6,6,6,
6,6,80,172,173,69,185,69,185,69,69,69,167,167,76,6,6,6,6,6,6,6,6,6,6,6,33,6,6,6,6,6,6,6,6,6,33,6,6,6,6,6,6,6,6,6,6,6,
6,6,80,80,80,80,80,80,80,80,80,76,80,80,80,6,6,6,6,6,6,6,6,6,6,6,33,6,6,6,6,6,6,6,6,6,33,6,6,6,6,6,6,6,6,6,6,6,
6,6,6,6,6,6,6,6,6,6,6,6,6,6,6,6,6,6,6,6,6,6,6,6,6,6,33,6,6,6,6,6,6,6,6,6,33,6,6,6,6,6,6,6,6,6,6,6,
6,6,6,6,6,6,6,6,6,6,6,6,6,6,6,6,6,6,6,6,6,6,6,6,6,6,33,6,6,6,6,6,6,80,76,80,185,80,76,80,6,6,6,6,6,6,6,6,
6,6,6,6,6,6,6,6,6,6,6,6,6,6,6,6,6,6,6,6,6,6,6,6,6,6,33,6,6,6,6,6,6,80,69,69,69,146,166,80,6,6,6,6,6,6,6,6,
6,6,6,6,6,6,6,6,6,6,6,6,6,6,6,6,6,6,6,6,6,6,6,6,6,6,33,6,6,6,6,6,6,80,69,69,69,69,145,80,6,6,6,6,6,6,6,6,
6,6,203,203,203,203,203,203,203,203,203,6,6,6,6,6,6,6,6,6,6,6,6,6,6,6,33,6,6,6,6,6,6,80,167,69,69,69,69,80,6,6,6,6,6,6,6,6,
6,6,204,46,46,46,46,46,46,46,204,6,6,6,6,6,6,6,6,6,6,6,6,6,6,6,33,6,6,6,6,6,6,80,167,69,69,192,69,80,6,6,6,6,6,6,6,6,
6,6,204,46,46,46,46,46,46,46,204,6,6,6,6,6,6,6,6,6,6,6,6,6,6,6,33,6,6,6,6,6,6,80,80,80,185,80,189,80,6,6,6,6,6,6,6,6,
6,6,204,46,46,46,46,46,46,46,204,6,6,6,6,6,6,6,6,6,6,6,6,6,6,6,33,6,6,6,6,6,6,80,69,69,69,80,144,80,6,6,6,6,6,6,6,6,
6,6,204,46,46,46,46,46,46,46,6,34,34,34,34,34,34,34,34,34,34,34,34,34,34,34,39,6,6,6,6,6,6,80,172,173,174,80,80,80,6,6,6,6,6,6,6,6,
6,6,204,46,46,46,46,46,46,46,204,6,6,6,6,6,6,6,6,6,6,6,6,6,6,6,33,6,6,6,6,6,6,80,80,80,80,80,6,6,6,6,6,6,6,6,6,6,
6,6,204,46,46,46,46,46,46,46,204,6,6,6,6,6,6,6,6,6,6,6,6,6,6,6,33,6,6,6,6,6,6,6,6,6,6,6,6,6,6,6,6,6,6,6,6,6,
6,6,204,46,46,46,46,46,46,46,204,6,6,6,6,6,6,6,6,6,6,6,6,6,6,6,33,6,6,6,6,6,6,6,6,6,6,6,6,6,6,6,6,6,6,6,6,6,
6,6,203,203,203,203,203,203,203,203,203,6,6,6,6,6,6,6,6,6,6,6,6,6,6,6,33,6,6,6,6,6,6,6,6,6,6,6,6,6,6,6,6,6,6,6,6,6,
6,6,6,6,6,6,6,6,6,6,6,6,6,6,6,6,6,6,6,6,6,6,6,6,6,6,33,6,6,6,6,6,6,6,6,6,6,6,6,6,6,6,6,6,6,6,6,6
</data>
 </layer>
</map>
